apps/statesvisited/state-images/MA.svg

<svg height="635" width="1182" xmlns="http://www.w3.org/2000/svg"><path d="m860.76172 173.39244s24.3512-4.15753 27.0239-4.45449c2.6727-.29697 6.2363-1.48484 7.4242 1.18786 1.1878 2.6727 3.8605 6.23629 5.9393 5.04842 2.0788-1.18786 1.1879-2.67269 2.9697-3.26662 1.7818-.59394 5.04841.59393 7.12711-.29697 2.0788-.8909 6.2363-3.26663 5.9394-5.04842-.297-1.7818-.297-4.75146-2.3758-4.75146-2.0787 0-2.0787 4.75146-5.0484 4.75146-2.9696 0-10.98771-3.86056-11.28471-5.93933-.297-2.07876 2.0788-4.75145 1.4848-7.12718-.5939-2.37573.297-5.64236-2.0787-5.64236-2.3758 0-4.7515 5.64236-7.7211 5.93932-2.9697.29697-13.3635 1.48483-15.7393 2.07877-2.3757.59393-13.6604 3.26662-13.6604 3.26662z" fill="#f6d55c" fill-rule="evenodd" opacity=".9" stroke="#000"/></svg>

<?xml version="1.0" encoding="UTF-8" standalone="no"?>
<!-- Created with Inkscape (http://www.inkscape.org/) -->
<svg
   xmlns:dc="http://purl.org/dc/elements/1.1/"
   xmlns:cc="http://web.resource.org/cc/"
   xmlns:rdf="http://www.w3.org/1999/02/22-rdf-syntax-ns#"
   xmlns:svg="http://www.w3.org/2000/svg"
   xmlns="http://www.w3.org/2000/svg"
   xmlns:xlink="http://www.w3.org/1999/xlink"
   xmlns:sodipodi="http://sodipodi.sourceforge.net/DTD/sodipodi-0.dtd"
   xmlns:inkscape="http://www.inkscape.org/namespaces/inkscape"
   id="svg1923"
   sodipodi:version="0.32"
   inkscape:version="0.44"
   width="1182"
   height="635"
   version="1.0"
   sodipodi:docbase="/Users/amyshore/Desktop"
   sodipodi:docname="usa.svg">
  <metadata
     id="metadata1928">
    <rdf:RDF>
      <cc:Work
         rdf:about="">
        <dc:format>image/svg+xml</dc:format>
        <dc:type
           rdf:resource="http://purl.org/dc/dcmitype/StillImage" />
      </cc:Work>
    </rdf:RDF>
  </metadata>
  <defs
     id="defs1926" />
  <sodipodi:namedview
     inkscape:window-height="752"
     inkscape:window-width="1280"
     inkscape:pageshadow="2"
     inkscape:pageopacity="0.0"
     guidetolerance="10.0"
     gridtolerance="10.0"
     objecttolerance="10.0"
     borderopacity="1.0"
     bordercolor="#666666"
     pagecolor="#ffffff"
     id="base"
     inkscape:zoom="0.59527559"
     inkscape:cx="775.234"
     inkscape:cy="319.32597"
     inkscape:window-x="0"
     inkscape:window-y="22"
     inkscape:current-layer="layer2" />
  <g
     inkscape:groupmode="layer"
     id="layer1"
     inkscape:label="bg"
     style="opacity:1;display:none"
     sodipodi:insensitive="true">
    <image
       xlink:href="ElectoralCollege1996-Large.png"
       sodipodi:absref="/Users/amyshore/Desktop/ElectoralCollege1996-Large.png"
       width="1182"
       height="635"
       id="image1930"
       x="-1.3571358"
       y="1.6798911" />
  </g>
  <g
     inkscape:groupmode="layer"
     id="layer2"
     inkscape:label="vector"
     style="opacity:0.9;display:inline"> <path style="fill:#f6d55c;fill-opacity:1;fill-rule:evenodd;stroke:black;stroke-width:1px;stroke-linecap:butt;stroke-linejoin:miter;stroke-opacity:1" d="M 860.76172,173.39244 C 860.76172,173.39244 885.11292,169.23491 887.78562,168.93795 C 890.45832,168.64098 894.02192,167.45311 895.20982,170.12581 C 896.39762,172.79851 899.07032,176.3621 901.14912,175.17423 C 903.22792,173.98637 902.33702,172.50154 904.11882,171.90761 C 905.90062,171.31367 909.16723,172.50154 911.24593,171.61064 C 913.32473,170.71974 917.48223,168.34401 917.18533,166.56222 C 916.88833,164.78042 916.88833,161.81076 914.80953,161.81076 C 912.73083,161.81076 912.73083,166.56222 909.76113,166.56222 C 906.79153,166.56222 898.77342,162.70166 898.47642,160.62289 C 898.17942,158.54413 900.55522,155.87144 899.96122,153.49571 C 899.36732,151.11998 900.25822,147.85335 897.88252,147.85335 C 895.50672,147.85335 893.13102,153.49571 890.16142,153.79267 C 887.19172,154.08964 876.79792,155.2775 874.42212,155.87144 C 872.04642,156.46537 860.76172,159.13806 860.76172,159.13806 L 860.76172,173.39244 z " id="path12584" />   </g>
</svg>
